X:1050
T:McGreevy's
R:reel
D:Randal Bays: Out of the Woods
Z:transcribed by Dave Marshall
M:C|
K:Dmix
| D2FA d2cA | GEED EFGB | Addc dcAB | cAGE EDCE |
(3DDD FA dBcA | GEED EFGB | Addc dcAB | cAGE EDD2 |
aged cded | ~c3d eg~g2 | aged cded | cAGE EDDg |
edeg aged | dcAB cAGB | A=FFE FGAB | cAGE EDCE |
